;FLAVOR:Marlin
;TIME:3109
;Filament used: 0.60918m
;Layer height: 0.1
;MINX:77.676
;MINY:77.682
;MINZ:0.3
;MAXX:142.325
;MAXY:142.318
;MAXZ:3
;Generated with Cura_SteamEngine 4.9.1
M140 S60
M105
M190 S60
M104 S200
M105
M109 S200
M82 ;absolute extrusion mode
; Ender 3 Custom Start G-code
G92 E0 ; Reset Extruder
G28 ; Home all axes
G1 Z2.0 F3000 ; Move Z Axis up little to prevent scratching of Heat Bed
G1 X0.1 Y20 Z0.3 F5000.0 ; Move to start position
G1 X0.1 Y200.0 Z0.3 F1500.0 E15 ; Draw the first line
G1 X0.4 Y200.0 Z0.3 F5000.0 ; Move to side a little
G1 X0.4 Y20 Z0.3 F1500.0 E30 ; Draw the second line
G92 E0 ; Reset Extruder
G1 Z2.0 F3000 ; Move Z Axis up little to prevent scratching of Heat Bed
G1 X5 Y20 Z0.3 F5000.0 ; Move over to prevent blob squish
G92 E0
G92 E0
G1 F1500 E-6.5
;LAYER_COUNT:28
;LAYER:0
M107
G0 F3600 X87.293 Y86.995 Z0.3
;TYPE:SKIRT
G1 F1500 E0
G1 F1800 X87.571 Y86.724 E0.0073
G1 X88.468 Y85.892 E0.03032
G1 X88.759 Y85.635 E0.03762
G1 X89.696 Y84.849 E0.06063
G1 X89.995 Y84.61 E0.06783
G1 X90.968 Y83.872 E0.0908
G1 X91.289 Y83.641 E0.09824
G1 X92.3 Y82.952 E0.12125
G1 X92.626 Y82.742 E0.12854
G1 X93.67 Y82.104 E0.15156
G1 X94.003 Y81.912 E0.15879
G1 X95.076 Y81.327 E0.18178
G1 X95.427 Y81.147 E0.1892
G1 X96.53 Y80.616 E0.21223
G1 X96.884 Y80.456 E0.21953
G1 X98.011 Y79.981 E0.24254
G1 X98.371 Y79.84 E0.24981
G1 X99.519 Y79.422 E0.27279
G1 X99.89 Y79.297 E0.28016
G1 X101.061 Y78.936 E0.30321
G1 X101.437 Y78.83 E0.31056
G1 X102.621 Y78.529 E0.33354
G1 X102.991 Y78.445 E0.34067
G1 X104.188 Y78.202 E0.36365
G1 X104.581 Y78.133 E0.37115
G1 X105.792 Y77.951 E0.39419
G1 X106.173 Y77.903 E0.40141
G1 X107.39 Y77.781 E0.42442
G1 X107.785 Y77.751 E0.43187
G1 X109.006 Y77.691 E0.45487
G1 X109.389 Y77.682 E0.46207
G1 X110.61 Y77.682 E0.48504
G1 X110.993 Y77.691 E0.49225
G1 X112.215 Y77.751 E0.51526
G1 X112.61 Y77.781 E0.52271
G1 X113.827 Y77.903 E0.54572
G1 X114.21 Y77.951 E0.55298
G1 X115.419 Y78.133 E0.57598
G1 X115.807 Y78.201 E0.58339
G1 X117.006 Y78.444 E0.6064
G1 X117.382 Y78.53 E0.61366
G1 X118.568 Y78.832 E0.63668
G1 X118.94 Y78.937 E0.64395
G1 X120.108 Y79.297 E0.66694
G1 X120.476 Y79.42 E0.67424
G1 X121.626 Y79.838 E0.69726
G1 X121.993 Y79.982 E0.70467
G1 X123.119 Y80.457 E0.72766
G1 X123.475 Y80.618 E0.73501
G1 X124.576 Y81.149 E0.758
G1 X124.911 Y81.321 E0.76509
G1 X125.986 Y81.905 E0.7881
G1 X126.335 Y82.106 E0.79567
G1 X127.379 Y82.745 E0.8187
G1 X127.697 Y82.951 E0.82583
G1 X128.706 Y83.638 E0.84879
G1 X129.032 Y83.872 E0.85634
G1 X130.007 Y84.612 E0.87936
G1 X130.297 Y84.843 E0.88634
G1 X131.235 Y85.628 E0.90934
G1 X131.53 Y85.888 E0.91674
G1 X132.427 Y86.719 E0.93974
G1 X132.717 Y87.003 E0.94738
G1 X133.57 Y87.88 E0.97039
G1 X133.828 Y88.158 E0.97752
G1 X134.636 Y89.074 E1.0005
G1 X134.883 Y89.368 E1.00772
G1 X135.647 Y90.325 E1.03076
G1 X135.884 Y90.637 E1.03813
G1 X136.598 Y91.63 E1.06113
G1 X136.818 Y91.954 E1.0685
G1 X137.481 Y92.981 E1.09149
G1 X137.684 Y93.313 E1.09881
G1 X138.295 Y94.372 E1.12181
G1 X138.479 Y94.71 E1.12905
G1 X139.037 Y95.798 E1.15205
G1 X139.208 Y96.153 E1.15946
G1 X139.711 Y97.269 E1.18249
G1 X139.859 Y97.62 E1.18966
G1 X140.306 Y98.757 E1.21264
G1 X140.44 Y99.125 E1.22
G1 X140.83 Y100.285 E1.24302
G1 X140.945 Y100.656 E1.25033
G1 X141.276 Y101.831 E1.27329
G1 X141.373 Y102.215 E1.28074
G1 X141.645 Y103.41 E1.3038
G1 X141.72 Y103.78 E1.3109
G1 X141.933 Y104.982 E1.33386
G1 X141.993 Y105.381 E1.34145
G1 X142.144 Y106.596 E1.36448
G1 X142.181 Y106.964 E1.37144
G1 X142.274 Y108.182 E1.39442
G1 X142.295 Y108.585 E1.40201
G1 X142.325 Y109.809 E1.42504
G1 X142.324 Y110.198 E1.43236
G1 X142.293 Y111.419 E1.45533
G1 X142.274 Y111.8 E1.46251
G1 X142.183 Y113.022 E1.48556
G1 X142.144 Y113.413 E1.49295
G1 X141.992 Y114.626 E1.51594
G1 X141.934 Y115.016 E1.52336
G1 X141.721 Y116.219 E1.54634
G1 X141.645 Y116.591 E1.55348
G1 X141.373 Y117.785 E1.57652
G1 X141.278 Y118.159 E1.58378
G1 X140.948 Y119.336 E1.60677
G1 X140.828 Y119.725 E1.61443
G1 X140.437 Y120.883 E1.63742
G1 X140.308 Y121.238 E1.64453
G1 X139.861 Y122.377 E1.66754
G1 X139.709 Y122.737 E1.67489
G1 X139.206 Y123.851 E1.69788
G1 X139.04 Y124.195 E1.70507
G1 X138.483 Y125.283 E1.72806
G1 X138.295 Y125.629 E1.73547
G1 X137.683 Y126.689 E1.75849
G1 X137.482 Y127.018 E1.76574
G1 X136.82 Y128.044 E1.78871
G1 X136.6 Y128.367 E1.79606
G1 X135.885 Y129.362 E1.81911
G1 X135.645 Y129.679 E1.82659
G1 X134.882 Y130.634 E1.84958
G1 X134.637 Y130.925 E1.85674
G1 X133.829 Y131.841 E1.87972
G1 X133.562 Y132.129 E1.8871
G1 X132.707 Y133.005 E1.91013
G1 X132.429 Y133.276 E1.91743
G1 X131.532 Y134.108 E1.94045
G1 X131.241 Y134.365 E1.94775
G1 X130.304 Y135.151 E1.97075
G1 X130.005 Y135.39 E1.97795
G1 X129.032 Y136.128 E2.00093
G1 X128.711 Y136.359 E2.00837
G1 X127.7 Y137.048 E2.03138
G1 X127.374 Y137.258 E2.03867
G1 X126.33 Y137.896 E2.06169
G1 X126.002 Y138.086 E2.06882
G1 X124.929 Y138.672 E2.09182
G1 X124.568 Y138.856 E2.09944
G1 X123.465 Y139.386 E2.12246
G1 X123.121 Y139.542 E2.12956
G1 X121.996 Y140.017 E2.15253
G1 X121.63 Y140.16 E2.15992
G1 X120.479 Y140.579 E2.18297
G1 X120.107 Y140.705 E2.19035
G1 X118.938 Y141.065 E2.21336
G1 X118.558 Y141.171 E2.22078
G1 X117.374 Y141.471 E2.24376
G1 X117.012 Y141.554 E2.25074
G1 X115.812 Y141.798 E2.27378
G1 X115.419 Y141.867 E2.28128
G1 X114.21 Y142.049 E2.30428
G1 X113.827 Y142.097 E2.31154
G1 X112.61 Y142.219 E2.33455
G1 X112.215 Y142.249 E2.342
G1 X110.994 Y142.309 E2.365
G1 X110.611 Y142.318 E2.3722
G1 X109.39 Y142.318 E2.39517
G1 X109.007 Y142.309 E2.40238
G1 X107.785 Y142.249 E2.42539
G1 X107.39 Y142.219 E2.43284
G1 X106.173 Y142.097 E2.45585
G1 X105.797 Y142.05 E2.46298
G1 X104.587 Y141.869 E2.48599
G1 X104.184 Y141.798 E2.49369
G1 X102.986 Y141.554 E2.51669
G1 X102.626 Y141.472 E2.52363
G1 X101.439 Y141.171 E2.54667
G1 X101.051 Y141.062 E2.55425
G1 X99.884 Y140.701 E2.57723
G1 X99.524 Y140.58 E2.58437
G1 X98.374 Y140.162 E2.60739
G1 X98.007 Y140.018 E2.6148
G1 X96.881 Y139.543 E2.63779
G1 X96.532 Y139.385 E2.645
G1 X95.43 Y138.855 E2.668
G1 X95.075 Y138.673 E2.67551
G1 X94.001 Y138.087 E2.69852
G1 X93.673 Y137.897 E2.70565
G1 X92.628 Y137.259 E2.72868
G1 X92.298 Y137.046 E2.73607
G1 X91.289 Y136.358 E2.75904
G1 X90.975 Y136.133 E2.76631
G1 X89.999 Y135.394 E2.78934
G1 X89.691 Y135.148 E2.79675
G1 X88.755 Y134.362 E2.81974
G1 X88.477 Y134.117 E2.82671
G1 X87.579 Y133.287 E2.84971
G1 X87.278 Y132.994 E2.85762
G1 X86.426 Y132.117 E2.88062
G1 X86.172 Y131.843 E2.88764
G1 X85.362 Y130.925 E2.91067
G1 X85.114 Y130.629 E2.91794
G1 X84.352 Y129.674 E2.94092
G1 X84.117 Y129.364 E2.94824
G1 X83.402 Y128.37 E2.97127
G1 X83.18 Y128.044 E2.97869
G1 X82.518 Y127.018 E3.00166
G1 X82.316 Y126.687 E3.00895
G1 X81.705 Y125.628 E3.03195
G1 X81.52 Y125.289 E3.03921
G1 X80.961 Y124.199 E3.06225
G1 X80.791 Y123.845 E3.06964
G1 X80.289 Y122.731 E3.09263
G1 X80.141 Y122.38 E3.09979
G1 X79.694 Y121.243 E3.12277
G1 X79.56 Y120.875 E3.13014
G1 X79.17 Y119.715 E3.15316
G1 X79.054 Y119.341 E3.16053
G1 X78.723 Y118.164 E3.18352
G1 X78.627 Y117.787 E3.19084
G1 X78.355 Y116.595 E3.21384
G1 X78.278 Y116.213 E3.22117
G1 X78.066 Y115.009 E3.24417
G1 X78.008 Y114.624 E3.25149
G1 X77.856 Y113.409 E3.27452
G1 X77.818 Y113.028 E3.28173
G1 X77.726 Y111.81 E3.3047
G1 X77.706 Y111.414 E3.31216
G1 X77.676 Y110.191 E3.33517
G1 X77.676 Y109.808 E3.34238
G1 X77.706 Y108.587 E3.36535
G1 X77.726 Y108.193 E3.37277
G1 X77.818 Y106.972 E3.39581
G1 X77.857 Y106.588 E3.40307
G1 X78.009 Y105.375 E3.42606
G1 X78.066 Y104.992 E3.43335
G1 X78.278 Y103.788 E3.45634
G1 X78.355 Y103.409 E3.46362
G1 X78.627 Y102.215 E3.48665
G1 X78.724 Y101.834 E3.49405
G1 X79.055 Y100.658 E3.51703
G1 X79.17 Y100.283 E3.52441
G1 X79.56 Y99.124 E3.54741
G1 X79.692 Y98.762 E3.55466
G1 X80.139 Y97.623 E3.57767
G1 X80.291 Y97.263 E3.58502
G1 X80.794 Y96.149 E3.60802
G1 X80.96 Y95.805 E3.6152
G1 X81.517 Y94.717 E3.63819
G1 X81.705 Y94.371 E3.6456
G1 X82.317 Y93.311 E3.66862
G1 X82.518 Y92.982 E3.67588
G1 X83.18 Y91.956 E3.69885
G1 X83.402 Y91.63 E3.70626
G1 X84.117 Y90.636 E3.7293
G1 X84.352 Y90.326 E3.73661
G1 X85.114 Y89.371 E3.7596
G1 X85.362 Y89.075 E3.76686
G1 X86.172 Y88.157 E3.78989
G1 X86.439 Y87.87 E3.79726
G1 X87.293 Y86.995 E3.82026
G0 F3600 X87.579 Y87.274
G1 F1800 X87.843 Y87.018 E3.82718
G1 X88.74 Y86.186 E3.85019
G1 X89.016 Y85.942 E3.85712
G1 X89.953 Y85.156 E3.88013
G1 X90.237 Y84.929 E3.88697
G1 X91.21 Y84.191 E3.90994
G1 X91.515 Y83.972 E3.917
G1 X92.526 Y83.283 E3.94002
G1 X92.834 Y83.084 E3.94691
G1 X93.878 Y82.446 E3.96993
G1 X94.195 Y82.263 E3.97681
G1 X95.268 Y81.678 E3.9998
G1 X95.6 Y81.507 E4.00683
G1 X96.703 Y80.976 E4.02985
G1 X97.039 Y80.825 E4.03678
G1 X98.166 Y80.35 E4.05979
G1 X98.508 Y80.216 E4.0667
G1 X99.656 Y79.798 E4.08968
G1 X100.008 Y79.679 E4.09667
G1 X101.179 Y79.318 E4.11972
G1 X101.536 Y79.218 E4.12669
G1 X102.72 Y78.917 E4.14967
G1 X103.071 Y78.837 E4.15645
G1 X104.268 Y78.594 E4.17942
G1 X104.64 Y78.528 E4.18653
G1 X105.851 Y78.346 E4.20956
G1 X106.213 Y78.301 E4.21642
G1 X107.43 Y78.179 E4.23943
G1 X107.805 Y78.151 E4.24651
G1 X109.026 Y78.091 E4.2695
G1 X109.389 Y78.082 E4.27633
G1 X110.61 Y78.082 E4.2993
G1 X110.973 Y78.091 E4.30613
G1 X112.195 Y78.151 E4.32914
G1 X112.57 Y78.179 E4.33622
G1 X113.787 Y78.301 E4.35922
G1 X114.151 Y78.346 E4.36612
G1 X115.36 Y78.528 E4.38912
G1 X115.728 Y78.593 E4.39615
G1 X116.927 Y78.836 E4.41916
G1 X117.283 Y78.918 E4.42604
G1 X118.469 Y79.22 E4.44906
G1 X118.823 Y79.319 E4.45597
G1 X119.991 Y79.679 E4.47896
G1 X120.339 Y79.796 E4.48587
G1 X121.489 Y80.214 E4.50888
G1 X121.837 Y80.351 E4.51592
G1 X122.963 Y80.826 E4.53891
G1 X123.302 Y80.979 E4.5459
G1 X124.403 Y81.51 E4.5689
G1 X124.72 Y81.673 E4.5756
G1 X125.795 Y82.257 E4.59861
G1 X126.126 Y82.447 E4.60579
G1 X127.17 Y83.086 E4.62882
G1 X127.472 Y83.281 E4.63558
G1 X128.481 Y83.968 E4.65854
G1 X128.79 Y84.19 E4.6657
G1 X129.765 Y84.93 E4.68872
G1 X130.04 Y85.15 E4.69535
G1 X130.978 Y85.935 E4.71836
G1 X131.258 Y86.182 E4.72538
G1 X132.155 Y87.013 E4.74838
G1 X132.431 Y87.281 E4.75562
G1 X133.284 Y88.158 E4.77863
G1 X133.529 Y88.423 E4.78542
G1 X134.337 Y89.339 E4.8084
G1 X134.57 Y89.617 E4.81522
G1 X135.334 Y90.574 E4.83825
G1 X135.559 Y90.871 E4.84526
G1 X136.273 Y91.864 E4.86827
G1 X136.482 Y92.17 E4.87524
G1 X137.145 Y93.197 E4.89823
G1 X137.338 Y93.513 E4.9052
G1 X137.949 Y94.572 E4.9282
G1 X138.124 Y94.893 E4.93507
G1 X138.682 Y95.981 E4.95807
G1 X138.843 Y96.317 E4.96508
G1 X139.346 Y97.433 E4.98811
G1 X139.487 Y97.766 E4.99491
G1 X139.934 Y98.903 E5.01789
G1 X140.061 Y99.253 E5.0249
G1 X140.451 Y100.413 E5.04792
G1 X140.56 Y100.764 E5.05483
G1 X140.891 Y101.939 E5.07779
G1 X140.983 Y102.304 E5.08487
G1 X141.255 Y103.499 E5.10793
G1 X141.326 Y103.85 E5.11466
G1 X141.539 Y105.052 E5.13763
G1 X141.597 Y105.43 E5.14482
G1 X141.748 Y106.645 E5.16785
G1 X141.783 Y106.995 E5.17447
G1 X141.876 Y108.213 E5.19744
G1 X141.895 Y108.595 E5.20464
G1 X141.925 Y109.819 E5.22767
G1 X141.925 Y110.188 E5.23461
G1 X141.894 Y111.409 E5.25759
G1 X141.876 Y111.771 E5.2644
G1 X141.785 Y112.993 E5.28745
G1 X141.748 Y113.363 E5.29445
G1 X141.596 Y114.576 E5.31744
G1 X141.54 Y114.946 E5.32448
G1 X141.327 Y116.149 E5.34746
G1 X141.255 Y116.503 E5.35426
G1 X140.983 Y117.697 E5.37729
G1 X140.893 Y118.051 E5.38417
G1 X140.563 Y119.228 E5.40716
G1 X140.449 Y119.597 E5.41442
G1 X140.058 Y120.755 E5.43742
G1 X139.936 Y121.091 E5.44414
G1 X139.489 Y122.23 E5.46716
G1 X139.344 Y122.572 E5.47414
G1 X138.841 Y123.686 E5.49713
G1 X138.684 Y124.013 E5.50396
G1 X138.127 Y125.101 E5.52695
G1 X137.949 Y125.429 E5.53397
G1 X137.337 Y126.489 E5.55699
G1 X137.146 Y126.801 E5.56388
G1 X136.484 Y127.827 E5.58684
G1 X136.275 Y128.133 E5.59381
G1 X135.56 Y129.128 E5.61686
G1 X135.332 Y129.429 E5.62396
G1 X134.569 Y130.384 E5.64696
G1 X134.338 Y130.66 E5.65373
G1 X133.53 Y131.576 E5.6767
G1 X133.276 Y131.85 E5.68373
G1 X132.421 Y132.726 E5.70676
G1 X132.157 Y132.982 E5.71368
G1 X131.26 Y133.814 E5.73669
G1 X130.984 Y134.058 E5.74362
G1 X130.047 Y134.844 E5.76662
G1 X129.763 Y135.071 E5.77346
G1 X128.79 Y135.809 E5.79644
G1 X128.485 Y136.028 E5.8035
G1 X127.474 Y136.717 E5.82651
G1 X127.166 Y136.916 E5.83341
G1 X126.122 Y137.554 E5.85642
G1 X125.81 Y137.735 E5.86321
G1 X124.737 Y138.321 E5.88621
G1 X124.395 Y138.496 E5.89343
G1 X123.292 Y139.026 E5.91645
G1 X122.965 Y139.173 E5.9232
G1 X121.84 Y139.648 E5.94617
G1 X121.493 Y139.785 E5.95319
G1 X120.342 Y140.204 E5.97623
G1 X119.989 Y140.322 E5.98323
G1 X118.82 Y140.682 E6.00624
G1 X118.46 Y140.783 E6.01327
G1 X117.276 Y141.083 E6.03624
G1 X116.932 Y141.162 E6.04288
G1 X115.732 Y141.406 E6.06592
G1 X115.36 Y141.472 E6.07303
G1 X114.151 Y141.654 E6.09602
G1 X113.787 Y141.699 E6.10292
G1 X112.57 Y141.821 E6.12593
G1 X112.195 Y141.849 E6.133
G1 X110.974 Y141.909 E6.156
G1 X110.611 Y141.918 E6.16283
G1 X109.39 Y141.918 E6.1858
G1 X109.027 Y141.909 E6.19263
G1 X107.805 Y141.849 E6.21564
G1 X107.43 Y141.821 E6.22272
G1 X106.213 Y141.699 E6.24572
G1 X105.856 Y141.655 E6.25249
G1 X104.646 Y141.474 E6.2755
G1 X104.264 Y141.406 E6.2828
G1 X103.066 Y141.162 E6.3058
G1 X102.724 Y141.084 E6.3124
G1 X101.537 Y140.783 E6.33543
G1 X101.169 Y140.679 E6.34263
G1 X100.002 Y140.318 E6.3656
G1 X99.661 Y140.204 E6.37237
G1 X98.511 Y139.786 E6.39538
G1 X98.163 Y139.649 E6.40242
G1 X97.037 Y139.174 E6.42541
G1 X96.706 Y139.025 E6.43224
G1 X95.604 Y138.495 E6.45524
G1 X95.267 Y138.322 E6.46236
G1 X94.193 Y137.736 E6.48538
G1 X93.881 Y137.556 E6.49215
G1 X92.836 Y136.918 E6.51518
G1 X92.523 Y136.716 E6.52219
G1 X91.514 Y136.028 E6.54516
G1 X91.216 Y135.814 E6.55206
G1 X90.24 Y135.075 E6.57509
G1 X89.948 Y134.842 E6.58212
G1 X89.012 Y134.056 E6.60511
G1 X88.748 Y133.823 E6.61173
G1 X87.85 Y132.993 E6.63474
G1 X87.565 Y132.715 E6.64223
G1 X86.713 Y131.838 E6.66523
G1 X86.472 Y131.578 E6.67189
G1 X85.662 Y130.66 E6.69492
G1 X85.427 Y130.379 E6.70181
G1 X84.665 Y129.424 E6.7248
G1 X84.442 Y129.13 E6.73174
G1 X83.727 Y128.136 E6.75477
G1 X83.516 Y127.827 E6.76181
G1 X82.854 Y126.801 E6.78478
G1 X82.662 Y126.487 E6.7917
G1 X82.051 Y125.428 E6.8147
G1 X81.876 Y125.107 E6.82157
G1 X81.317 Y124.017 E6.84462
G1 X81.155 Y123.68 E6.85165
G1 X80.653 Y122.566 E6.87463
G1 X80.513 Y122.234 E6.88141
G1 X80.066 Y121.097 E6.90439
G1 X79.939 Y120.747 E6.9114
G1 X79.549 Y119.587 E6.93442
G1 X79.439 Y119.232 E6.94141
G1 X79.108 Y118.055 E6.96441
G1 X79.017 Y117.698 E6.97134
G1 X78.745 Y116.506 E6.99434
G1 X78.672 Y116.143 E7.0013
G1 X78.46 Y114.939 E7.0243
G1 X78.405 Y114.575 E7.03122
G1 X78.253 Y113.36 E7.05425
G1 X78.217 Y112.998 E7.0611
G1 X78.125 Y111.78 E7.08407
G1 X78.106 Y111.404 E7.09116
G1 X78.076 Y110.181 E7.11417
G1 X78.076 Y109.818 E7.121
G1 X78.106 Y108.597 E7.14397
G1 X78.125 Y108.223 E7.15102
G1 X78.217 Y107.002 E7.17405
G1 X78.253 Y106.638 E7.18093
G1 X78.405 Y105.425 E7.20392
G1 X78.46 Y105.062 E7.21083
G1 X78.672 Y103.858 E7.23383
G1 X78.745 Y103.497 E7.24076
G1 X79.017 Y102.303 E7.26379
G1 X79.109 Y101.942 E7.2708
G1 X79.44 Y100.766 E7.29378
G1 X79.549 Y100.411 E7.30076
G1 X79.939 Y99.252 E7.32377
G1 X80.064 Y98.909 E7.33063
G1 X80.511 Y97.77 E7.35365
G1 X80.656 Y97.428 E7.36064
G1 X81.159 Y96.314 E7.38363
G1 X81.316 Y95.987 E7.39045
G1 X81.873 Y94.899 E7.41344
G1 X82.051 Y94.571 E7.42046
G1 X82.663 Y93.511 E7.44349
G1 X82.854 Y93.199 E7.45037
G1 X83.516 Y92.173 E7.47334
G1 X83.727 Y91.864 E7.48038
G1 X84.442 Y90.87 E7.50341
G1 X84.665 Y90.576 E7.51035
G1 X85.427 Y89.621 E7.53333
G1 X85.662 Y89.34 E7.54022
G1 X86.472 Y88.422 E7.56325
G1 X86.725 Y88.149 E7.57025
G1 X87.579 Y87.274 E7.59325
G0 F3600 X87.866 Y87.554
G1 F1800 X88.115 Y87.311 E7.5998
G1 X89.012 Y86.479 E7.62281
G1 X89.273 Y86.248 E7.62937
G1 X90.21 Y85.462 E7.65237
G1 X90.479 Y85.248 E7.65884
G1 X91.452 Y84.51 E7.68181
G1 X91.74 Y84.303 E7.68848
G1 X92.751 Y83.614 E7.7115
G1 X93.043 Y83.425 E7.71804
G1 X94.087 Y82.787 E7.74105
G1 X94.386 Y82.614 E7.74755
G1 X95.459 Y82.029 E7.77054
G1 X95.774 Y81.868 E7.77719
G1 X96.877 Y81.337 E7.80022
G1 X97.194 Y81.194 E7.80676
G1 X98.321 Y80.719 E7.82977
G1 X98.645 Y80.591 E7.83632
G1 X99.793 Y80.173 E7.8593
