;FLAVOR:Marlin
;TIME:1782
;Filament used: 0.61429m
;Layer height: 0.2
;MINX:77.676
;MINY:77.682
;MINZ:0.3
;MAXX:142.325
;MAXY:142.318
;MAXZ:2.9
;Generated with Cura_SteamEngine 4.9.1
M140 S60
M105
M190 S60
M104 S200
M105
M109 S200
M82 ;absolute extrusion mode
; Ender 3 Custom Start G-code
G92 E0 ; Reset Extruder
G28 ; Home all axes
G1 Z2.0 F3000 ; Move Z Axis up little to prevent scratching of Heat Bed
G1 X0.1 Y20 Z0.3 F5000.0 ; Move to start position
G1 X0.1 Y200.0 Z0.3 F1500.0 E15 ; Draw the first line
G1 X0.4 Y200.0 Z0.3 F5000.0 ; Move to side a little
G1 X0.4 Y20 Z0.3 F1500.0 E30 ; Draw the second line
G92 E0 ; Reset Extruder
G1 Z2.0 F3000 ; Move Z Axis up little to prevent scratching of Heat Bed
G1 X5 Y20 Z0.3 F5000.0 ; Move over to prevent blob squish
G92 E0
G92 E0
G1 F1500 E-6.5
;LAYER_COUNT:14
;LAYER:0
M107
G0 F3600 X87.291 Y86.997 Z0.3
;TYPE:SKIRT
G1 F1500 E0
G1 F1800 X87.567 Y86.728 E0.00725
G1 X88.471 Y85.889 E0.03045
G1 X88.764 Y85.63 E0.03781
G1 X89.695 Y84.849 E0.06066
G1 X89.994 Y84.61 E0.06786
G1 X90.967 Y83.872 E0.09084
G1 X91.282 Y83.646 E0.09813
G1 X92.285 Y82.961 E0.12098
G1 X92.625 Y82.744 E0.12856
G1 X93.667 Y82.107 E0.15154
G1 X94.006 Y81.911 E0.1589
G1 X95.09 Y81.321 E0.18212
G1 X95.428 Y81.148 E0.18926
G1 X96.532 Y80.615 E0.21232
G1 X96.901 Y80.448 E0.21994
G1 X98.017 Y79.979 E0.24271
G1 X98.368 Y79.842 E0.2498
G1 X99.523 Y79.421 E0.27292
G1 X99.893 Y79.296 E0.28027
G1 X101.033 Y78.944 E0.30271
G1 X101.411 Y78.838 E0.3101
G1 X102.622 Y78.53 E0.3336
G1 X102.993 Y78.445 E0.34076
G1 X104.185 Y78.203 E0.36364
G1 X104.576 Y78.134 E0.37111
G1 X105.798 Y77.95 E0.39435
G1 X106.181 Y77.902 E0.40162
G1 X107.388 Y77.781 E0.42443
G1 X107.785 Y77.751 E0.43192
G1 X109.011 Y77.691 E0.45501
G1 X109.392 Y77.682 E0.46218
G1 X110.607 Y77.682 E0.48504
G1 X110.992 Y77.692 E0.49228
G1 X112.226 Y77.753 E0.51552
G1 X112.62 Y77.782 E0.52295
G1 X113.826 Y77.903 E0.54575
G1 X114.207 Y77.951 E0.55297
G1 X115.424 Y78.134 E0.57612
G1 X115.817 Y78.203 E0.58363
G1 X117.008 Y78.445 E0.60649
G1 X117.378 Y78.53 E0.61363
G1 X118.589 Y78.838 E0.63714
G1 X118.968 Y78.944 E0.64454
G1 X120.114 Y79.298 E0.6671
G1 X120.487 Y79.424 E0.67451
G1 X121.64 Y79.845 E0.6976
G1 X121.992 Y79.983 E0.70471
G1 X123.113 Y80.455 E0.72759
G1 X123.472 Y80.617 E0.735
G1 X124.572 Y81.147 E0.75797
G1 X124.914 Y81.323 E0.7652
G1 X126 Y81.914 E0.78846
G1 X126.341 Y82.111 E0.79587
G1 X127.381 Y82.747 E0.8188
G1 X127.705 Y82.955 E0.82604
G1 X128.716 Y83.644 E0.84905
G1 X129.038 Y83.876 E0.85652
G1 X130.012 Y84.615 E0.87952
G1 X130.306 Y84.85 E0.8866
G1 X131.237 Y85.63 E0.90944
G1 X131.531 Y85.889 E0.91681
G1 X132.435 Y86.727 E0.94
G1 X132.727 Y87.013 E0.94769
G1 X133.571 Y87.882 E0.97048
G1 X133.818 Y88.148 E0.9773
G1 X134.63 Y89.066 E1.00036
G1 X134.885 Y89.369 E1.00781
G1 X135.647 Y90.324 E1.03079
G1 X135.882 Y90.634 E1.03811
G1 X136.595 Y91.625 E1.06107
G1 X136.816 Y91.949 E1.06845
G1 X137.481 Y92.979 E1.09151
G1 X137.685 Y93.314 E1.09889
G1 X138.295 Y94.372 E1.12186
G1 X138.48 Y94.712 E1.12914
G1 X139.042 Y95.809 E1.15233
G1 X139.211 Y96.16 E1.15966
G1 X139.71 Y97.267 E1.1825
G1 X139.859 Y97.62 E1.1897
G1 X140.306 Y98.758 E1.2127
G1 X140.437 Y99.117 E1.21989
G1 X140.831 Y100.285 E1.24308
G1 X140.949 Y100.666 E1.25058
G1 X141.277 Y101.832 E1.27337
G1 X141.373 Y102.213 E1.28076
G1 X141.645 Y103.408 E1.30381
G1 X141.721 Y103.784 E1.31103
G1 X141.935 Y104.997 E1.3342
G1 X141.994 Y105.388 E1.34163
G1 X142.144 Y106.592 E1.36446
G1 X142.181 Y106.962 E1.37145
G1 X142.274 Y108.18 E1.39443
G1 X142.295 Y108.583 E1.40202
G1 X142.325 Y109.807 E1.42505
G1 X142.325 Y110.194 E1.43233
G1 X142.294 Y111.425 E1.45549
G1 X142.275 Y111.808 E1.46271
G1 X142.185 Y113.018 E1.48553
G1 X142.145 Y113.413 E1.493
G1 X141.992 Y114.629 E1.51605
G1 X141.934 Y115.01 E1.5233
G1 X141.722 Y116.212 E1.54626
G1 X141.644 Y116.6 E1.55371
G1 X141.371 Y117.791 E1.57669
G1 X141.281 Y118.144 E1.58354
G1 X140.949 Y119.334 E1.60678
G1 X140.825 Y119.735 E1.61468
G1 X140.437 Y120.883 E1.63747
G1 X140.308 Y121.238 E1.64458
G1 X139.861 Y122.376 E1.66758
G1 X139.711 Y122.731 E1.67483
G1 X139.208 Y123.846 E1.69784
G1 X139.044 Y124.188 E1.70497
G1 X138.488 Y125.276 E1.72795
G1 X138.294 Y125.632 E1.73558
G1 X137.681 Y126.692 E1.75861
G1 X137.485 Y127.013 E1.76569
G1 X136.823 Y128.04 E1.78867
G1 X136.602 Y128.365 E1.79606
G1 X135.888 Y129.359 E1.81909
G1 X135.644 Y129.681 E1.82669
G1 X134.88 Y130.636 E1.84969
G1 X134.641 Y130.92 E1.85667
G1 X133.832 Y131.838 E1.87969
G1 X133.562 Y132.129 E1.88716
G1 X132.709 Y133.003 E1.91013
G1 X132.433 Y133.272 E1.91738
G1 X131.529 Y134.111 E1.94058
G1 X131.236 Y134.37 E1.94794
G1 X130.305 Y135.151 E1.97079
G1 X130.006 Y135.39 E1.97799
G1 X129.033 Y136.128 E2.00097
G1 X128.718 Y136.354 E2.00826
G1 X127.715 Y137.039 E2.03111
G1 X127.375 Y137.256 E2.03869
G1 X126.333 Y137.893 E2.06167
G1 X126.001 Y138.085 E2.06888
G1 X124.916 Y138.677 E2.09213
G1 X124.558 Y138.861 E2.0997
G1 X123.461 Y139.388 E2.12259
G1 X123.122 Y139.541 E2.12959
G1 X121.999 Y140.016 E2.15253
G1 X121.632 Y140.16 E2.15994
G1 X120.48 Y140.58 E2.18301
G1 X120.097 Y140.709 E2.19061
G1 X118.934 Y141.066 E2.21349
G1 X118.564 Y141.169 E2.22072
G1 X117.374 Y141.471 E2.24381
G1 X117.007 Y141.555 E2.25089
G1 X115.815 Y141.797 E2.27377
G1 X115.424 Y141.866 E2.28124
G1 X114.202 Y142.05 E2.30449
G1 X113.819 Y142.098 E2.31175
G1 X112.612 Y142.219 E2.33457
G1 X112.215 Y142.249 E2.34206
G1 X110.989 Y142.309 E2.36515
G1 X110.608 Y142.318 E2.37231
G1 X109.393 Y142.318 E2.39517
G1 X109.008 Y142.308 E2.40241
G1 X107.774 Y142.247 E2.42565
G1 X107.38 Y142.218 E2.43309
G1 X106.174 Y142.097 E2.45589
G1 X105.796 Y142.05 E2.46305
G1 X104.576 Y141.867 E2.48626
G1 X104.174 Y141.796 E2.49393
G1 X102.983 Y141.553 E2.5168
G1 X102.632 Y141.473 E2.52357
G1 X101.44 Y141.172 E2.5467
G1 X101.042 Y141.06 E2.55448
G1 X99.88 Y140.7 E2.57736
G1 X99.513 Y140.576 E2.58464
G1 X98.36 Y140.155 E2.60773
G1 X98.006 Y140.016 E2.61489
G1 X96.881 Y139.542 E2.63785
G1 X96.532 Y139.385 E2.64505
G1 X95.435 Y138.858 E2.66794
G1 X95.074 Y138.672 E2.67558
G1 X93.992 Y138.081 E2.69877
G1 X93.671 Y137.896 E2.70574
G1 X92.626 Y137.259 E2.72876
G1 X92.287 Y137.04 E2.73635
G1 X91.278 Y136.351 E2.75934
G1 X90.968 Y136.128 E2.76652
G1 X90 Y135.395 E2.78936
G1 X89.686 Y135.144 E2.79692
G1 X88.75 Y134.356 E2.81994
G1 X88.477 Y134.115 E2.82679
G1 X87.572 Y133.278 E2.84998
G1 X87.279 Y132.993 E2.85766
G1 X86.434 Y132.125 E2.88045
G1 X86.177 Y131.848 E2.88756
G1 X85.36 Y130.923 E2.91077
G1 X85.107 Y130.621 E2.91819
G1 X84.345 Y129.665 E2.94118
G1 X84.111 Y129.357 E2.94846
G1 X83.397 Y128.364 E2.97146
G1 X83.175 Y128.038 E2.97888
G1 X82.512 Y127.01 E3.00189
G1 X82.308 Y126.675 E3.00927
G1 X81.697 Y125.614 E3.0323
G1 X81.513 Y125.276 E3.03954
G1 X80.957 Y124.19 E3.06249
G1 X80.789 Y123.841 E3.06978
G1 X80.285 Y122.723 E3.09285
G1 X80.134 Y122.365 E3.10015
G1 X79.692 Y121.238 E3.12293
G1 X79.559 Y120.87 E3.13029
G1 X79.169 Y119.707 E3.15336
G1 X79.05 Y119.327 E3.16085
G1 X78.72 Y118.151 E3.18383
G1 X78.625 Y117.779 E3.19105
G1 X78.353 Y116.587 E3.21405
G1 X78.275 Y116.197 E3.22153
G1 X78.064 Y114.992 E3.24454
G1 X78.007 Y114.616 E3.25169
G1 X77.855 Y113.402 E3.27471
G1 X77.817 Y113.018 E3.28197
G1 X77.726 Y111.809 E3.30477
G1 X77.706 Y111.416 E3.31217
G1 X77.676 Y110.195 E3.33515
G1 X77.676 Y109.813 E3.34233
G1 X77.706 Y108.582 E3.3655
G1 X77.726 Y108.187 E3.37294
G1 X77.817 Y106.977 E3.39576
G1 X77.856 Y106.589 E3.4031
G1 X78.009 Y105.372 E3.42617
G1 X78.065 Y104.996 E3.43332
G1 X78.276 Y103.794 E3.45628
G1 X78.356 Y103.402 E3.4638
G1 X78.629 Y102.21 E3.48681
G1 X78.721 Y101.847 E3.49385
G1 X79.049 Y100.676 E3.51672
G1 X79.169 Y100.291 E3.52431
G1 X79.561 Y99.123 E3.54749
G1 X79.695 Y98.756 E3.55483
G1 X80.138 Y97.627 E3.57765
G1 X80.289 Y97.269 E3.58496
G1 X80.792 Y96.154 E3.60797
G1 X80.958 Y95.809 E3.61517
G1 X81.516 Y94.718 E3.63822
G1 X81.707 Y94.366 E3.64575
G1 X82.318 Y93.309 E3.66872
G1 X82.515 Y92.987 E3.67582
G1 X83.177 Y91.96 E3.6988
G1 X83.4 Y91.632 E3.70626
G1 X84.114 Y90.639 E3.72927
G1 X84.354 Y90.323 E3.73673
G1 X85.118 Y89.367 E3.75975
G1 X85.359 Y89.08 E3.7668
G1 X86.168 Y88.162 E3.78982
G1 X86.438 Y87.871 E3.79729
G1 X87.291 Y86.997 E3.82026
G0 F3600 X87.577 Y87.276
G1 F1800 X87.839 Y87.021 E3.82714
G1 X88.743 Y86.182 E3.85034
G1 X89.021 Y85.937 E3.85731
G1 X89.952 Y85.156 E3.88017
G1 X90.236 Y84.929 E3.887
G1 X91.209 Y84.191 E3.90998
G1 X91.508 Y83.976 E3.9169
G1 X92.511 Y83.291 E3.93975
G1 X92.833 Y83.085 E3.94694
G1 X93.875 Y82.448 E3.96991
G1 X94.197 Y82.262 E3.97691
G1 X95.281 Y81.672 E4.00012
G1 X95.602 Y81.508 E4.0069
G1 X96.706 Y80.975 E4.02997
G1 X97.056 Y80.817 E4.03719
G1 X98.172 Y80.348 E4.05996
G1 X98.505 Y80.217 E4.06669
G1 X99.66 Y79.796 E4.08982
G1 X100.011 Y79.678 E4.09678
G1 X101.151 Y79.326 E4.11922
G1 X101.51 Y79.225 E4.12624
G1 X102.721 Y78.917 E4.14974
G1 X103.073 Y78.837 E4.15653
G1 X104.265 Y78.595 E4.17941
G1 X104.635 Y78.529 E4.18648
G1 X105.857 Y78.345 E4.20973
G1 X106.221 Y78.3 E4.21663
G1 X107.428 Y78.179 E4.23945
G1 X107.804 Y78.151 E4.24654
G1 X109.03 Y78.091 E4.26963
G1 X109.392 Y78.082 E4.27644
G1 X110.607 Y78.082 E4.29929
G1 X110.972 Y78.091 E4.30616
G1 X112.206 Y78.152 E4.3294
G1 X112.58 Y78.18 E4.33646
G1 X113.786 Y78.301 E4.35926
G1 X114.147 Y78.346 E4.3661
G1 X115.364 Y78.529 E4.38925
G1 X115.738 Y78.595 E4.39639
G1 X116.929 Y78.837 E4.41926
G1 X117.279 Y78.917 E4.42601
G1 X118.49 Y79.225 E4.44951
G1 X118.85 Y79.327 E4.45655
G1 X119.996 Y79.681 E4.47911
G1 X120.35 Y79.8 E4.48614
G1 X121.503 Y80.221 E4.50923
G1 X121.837 Y80.352 E4.51598
G1 X122.958 Y80.824 E4.53886
G1 X123.298 Y80.977 E4.54587
G1 X124.398 Y81.507 E4.56884
G1 X124.723 Y81.674 E4.57571
G1 X125.809 Y82.265 E4.59897
G1 X126.133 Y82.452 E4.60601
G1 X127.173 Y83.088 E4.62894
G1 X127.479 Y83.286 E4.63579
G1 X128.49 Y83.975 E4.65881
G1 X128.796 Y84.195 E4.6659
G1 X129.77 Y84.934 E4.68889
G1 X130.049 Y85.157 E4.69561
G1 X130.98 Y85.937 E4.71846
G1 X131.259 Y86.182 E4.72544
G1 X132.163 Y87.02 E4.74863
G1 X132.44 Y87.291 E4.75592
G1 X133.284 Y88.16 E4.77871
G1 X133.519 Y88.413 E4.7852
G1 X134.331 Y89.331 E4.80826
G1 X134.572 Y89.619 E4.81532
G1 X135.334 Y90.574 E4.8383
G1 X135.557 Y90.867 E4.84523
G1 X136.27 Y91.858 E4.86819
G1 X136.48 Y92.166 E4.8752
G1 X137.145 Y93.196 E4.89827
G1 X137.339 Y93.514 E4.90527
G1 X137.949 Y94.572 E4.92825
G1 X138.124 Y94.894 E4.93514
G1 X138.686 Y95.991 E4.95833
G1 X138.846 Y96.324 E4.96528
G1 X139.345 Y97.431 E4.98812
G1 X139.487 Y97.767 E4.99498
G1 X139.934 Y98.905 E5.01798
G1 X140.058 Y99.245 E5.02478
G1 X140.452 Y100.413 E5.04797
G1 X140.564 Y100.774 E5.05508
G1 X140.892 Y101.94 E5.07787
G1 X140.983 Y102.302 E5.08489
G1 X141.255 Y103.497 E5.10794
G1 X141.327 Y103.853 E5.11477
G1 X141.541 Y105.066 E5.13794
G1 X141.597 Y105.437 E5.145
G1 X141.747 Y106.641 E5.16782
G1 X141.783 Y106.993 E5.17448
G1 X141.876 Y108.211 E5.19746
G1 X141.895 Y108.593 E5.20465
G1 X141.925 Y109.817 E5.22768
G1 X141.925 Y110.184 E5.23459
G1 X141.894 Y111.415 E5.25775
G1 X141.876 Y111.778 E5.26459
G1 X141.786 Y112.988 E5.28741
G1 X141.748 Y113.363 E5.2945
G1 X141.595 Y114.579 E5.31755
G1 X141.541 Y114.94 E5.32442
G1 X141.329 Y116.142 E5.34738
G1 X141.254 Y116.51 E5.35444
G1 X140.981 Y117.701 E5.37743
G1 X140.896 Y118.037 E5.38395
G1 X140.564 Y119.227 E5.40719
G1 X140.446 Y119.607 E5.41467
G1 X140.058 Y120.755 E5.43747
G1 X139.936 Y121.091 E5.44419
G1 X139.489 Y122.229 E5.46719
G1 X139.346 Y122.567 E5.47409
G1 X138.843 Y123.682 E5.4971
G1 X138.687 Y124.006 E5.50387
G1 X138.131 Y125.094 E5.52685
G1 X137.948 Y125.432 E5.53408
G1 X137.335 Y126.492 E5.55711
G1 X137.149 Y126.796 E5.56382
G1 X136.487 Y127.823 E5.5868
G1 X136.277 Y128.131 E5.59381
G1 X135.563 Y129.125 E5.61683
G1 X135.331 Y129.431 E5.62406
G1 X134.567 Y130.386 E5.64706
G1 X134.341 Y130.656 E5.65369
G1 X133.532 Y131.574 E5.6767
G1 X133.276 Y131.85 E5.68378
G1 X132.423 Y132.724 E5.70676
G1 X132.161 Y132.979 E5.71363
G1 X131.257 Y133.818 E5.73683
G1 X130.979 Y134.063 E5.7438
G1 X130.048 Y134.844 E5.76666
G1 X129.764 Y135.071 E5.7735
G1 X128.791 Y135.809 E5.79647
G1 X128.492 Y136.024 E5.8034
G1 X127.489 Y136.709 E5.82625
G1 X127.167 Y136.915 E5.83344
G1 X126.125 Y137.552 E5.85641
G1 X125.809 Y137.734 E5.86327
G1 X124.724 Y138.326 E5.88652
G1 X124.384 Y138.5 E5.8937
G1 X123.287 Y139.027 E5.9166
G1 X122.966 Y139.172 E5.92322
G1 X121.843 Y139.647 E5.94616
G1 X121.495 Y139.784 E5.95319
G1 X120.343 Y140.204 E5.97626
G1 X119.98 Y140.326 E5.98346
G1 X118.817 Y140.683 E6.00635
G1 X118.465 Y140.782 E6.01323
G1 X117.275 Y141.084 E6.03632
G1 X116.927 Y141.163 E6.04303
G1 X115.735 Y141.405 E6.06591
G1 X115.365 Y141.471 E6.07298
G1 X114.143 Y141.655 E6.09623
G1 X113.779 Y141.7 E6.10313
G1 X112.572 Y141.821 E6.12594
G1 X112.196 Y141.849 E6.13304
G1 X110.97 Y141.909 E6.15613
G1 X110.608 Y141.918 E6.16294
G1 X109.393 Y141.918 E6.18579
G1 X109.028 Y141.909 E6.19266
G1 X107.794 Y141.848 E6.2159
G1 X107.42 Y141.82 E6.22296
G1 X106.214 Y141.699 E6.24576
G1 X105.855 Y141.654 E6.25256
G1 X104.635 Y141.471 E6.27577
G1 X104.254 Y141.404 E6.28304
G1 X103.063 Y141.161 E6.30591
G1 X102.73 Y141.085 E6.31233
G1 X101.538 Y140.784 E6.33546
G1 X101.16 Y140.678 E6.34284
G1 X99.998 Y140.318 E6.36573
G1 X99.65 Y140.2 E6.37264
G1 X98.497 Y139.779 E6.39573
G1 X98.162 Y139.647 E6.4025
G1 X97.037 Y139.173 E6.42546
G1 X96.706 Y139.024 E6.43229
G1 X95.609 Y138.497 E6.45519
G1 X95.266 Y138.321 E6.46244
G1 X94.184 Y137.73 E6.48563
G1 X93.879 Y137.555 E6.49224
G1 X92.834 Y136.918 E6.51526
G1 X92.513 Y136.71 E6.52246
G1 X91.504 Y136.021 E6.54544
G1 X91.21 Y135.809 E6.55226
G1 X90.242 Y135.076 E6.5751
G1 X89.943 Y134.838 E6.58229
G1 X89.007 Y134.05 E6.6053
G1 X88.748 Y133.822 E6.6118
G1 X87.843 Y132.985 E6.63498
G1 X87.566 Y132.714 E6.64227
G1 X86.721 Y131.846 E6.66506
G1 X86.477 Y131.583 E6.67181
G1 X85.66 Y130.658 E6.69502
G1 X85.419 Y130.371 E6.70207
G1 X84.657 Y129.415 E6.72507
G1 X84.436 Y129.123 E6.73196
G1 X83.722 Y128.13 E6.75496
G1 X83.511 Y127.821 E6.762
G1 X82.848 Y126.793 E6.78501
G1 X82.654 Y126.475 E6.79202
G1 X82.043 Y125.414 E6.81505
G1 X81.869 Y125.093 E6.82192
G1 X81.313 Y124.007 E6.84487
G1 X81.154 Y123.676 E6.85178
G1 X80.65 Y122.558 E6.87484
G1 X80.507 Y122.219 E6.88176
G1 X80.065 Y121.092 E6.90454
G1 X79.938 Y120.743 E6.91152
G1 X79.548 Y119.58 E6.9346
G1 X79.435 Y119.219 E6.94171
G1 X79.105 Y118.043 E6.96469
G1 X79.015 Y117.69 E6.97154
G1 X78.743 Y116.498 E6.99454
G1 X78.669 Y116.128 E7.00164
G1 X78.458 Y114.923 E7.02465
G1 X78.404 Y114.566 E7.03144
G1 X78.252 Y113.352 E7.05445
G1 X78.216 Y112.988 E7.06133
G1 X78.125 Y111.779 E7.08414
G1 X78.106 Y111.406 E7.09117
G1 X78.076 Y110.185 E7.11414
G1 X78.076 Y109.823 E7.12095
G1 X78.106 Y108.592 E7.14411
G1 X78.125 Y108.217 E7.15118
G1 X78.216 Y107.007 E7.174
G1 X78.253 Y106.639 E7.18096
G1 X78.406 Y105.422 E7.20403
G1 X78.459 Y105.066 E7.2108
G1 X78.67 Y103.864 E7.23376
G1 X78.746 Y103.491 E7.24092
G1 X79.019 Y102.299 E7.26392
G1 X79.106 Y101.955 E7.27059
G1 X79.434 Y100.784 E7.29347
G1 X79.549 Y100.419 E7.30067
G1 X79.941 Y99.251 E7.32384
G1 X80.067 Y98.902 E7.33082
G1 X80.51 Y97.773 E7.35364
G1 X80.654 Y97.433 E7.36058
G1 X81.157 Y96.318 E7.38359
G1 X81.314 Y95.991 E7.39041
G1 X81.872 Y94.9 E7.41347
G1 X82.053 Y94.567 E7.42059
G1 X82.664 Y93.51 E7.44356
G1 X82.851 Y93.204 E7.45031
G1 X83.513 Y92.177 E7.47329
G1 X83.725 Y91.866 E7.48037
G1 X84.439 Y90.873 E7.50338
G1 X84.666 Y90.573 E7.51045
G1 X85.43 Y89.617 E7.53347
G1 X85.659 Y89.344 E7.54018
G1 X86.468 Y88.426 E7.56319
G1 X86.724 Y88.15 E7.57027
G1 X87.577 Y87.276 E7.59325
G0 F3600 X87.863 Y87.556
G1 F1800 X88.111 Y87.314 E7.59976
G1 X89.015 Y86.475 E7.62296
G1 X89.278 Y86.243 E7.62956
G1 X90.209 Y85.462 E7.65242
G1 X90.478 Y85.248 E7.65889
G1 X91.451 Y84.51 E7.68186
G1 X91.733 Y84.306 E7.6884
G1 X92.736 Y83.621 E7.71125
G1 X93.042 Y83.427 E7.71807
G1 X94.084 Y82.79 E7.74104
G1 X94.389 Y82.614 E7.74766
G1 X95.473 Y82.024 E7.77088
G1 X95.776 Y81.868 E7.77729
G1 X96.88 Y81.335 E7.80035
G1 X97.211 Y81.186 E7.80718
G1 X98.327 Y80.717 E7.82995
G1 X98.642 Y80.593 E7.83632
G1 X99.797 Y80.172 E7.85944
